!!!OTL: 243. Zhok
!!!Genre:	Zhok
!!!Mode:	Altered Dorian
!!!Listening/dance:	dance
!!!:	*B-:; *G:frey
!!!One_Mode:	no
**kern
*thru
*I"P1
*clefG2
*k[b-]
*B-:
!LO:TX:a:i:t=Bb-major
4f
4b-
8ddL
8ffJ
=18
4een
4ff
4ee-X
=19
4.dd
8cc
12ee-L
12dd
12ccJ
=20
12ee-L
12dd
12ccJ
2cc
=21
4b-
4a
4g
=22
4ff
4een
4gg
=23
2.ff
=24
2.bb-
=25
4f
4b-
8ddL
8ffJ
=26
4een
4ff
4ee-X
=27
4.dd
8cc
12ee-L
12dd
12ccJ
=28
12ee-L
12dd
12ccJ
2cc
!!!End-Modulation
!!!Begin-Modulation
*-
